X:1
T:Title
%%score 1 2
L:1/8
Q:1/4=122
M:6/4
K:Ab
V:1 treble nm="Grand Piano, Soprano"
V:2 bass nm="Choir Pad, I Know It Is Done"
V:1
 E2 [EA]2 [EA]2 [FA]2 [EA]4 | [EA]2 [FB]2 [DA]2 [FB]2 [Ec]4 | [Ec]2 [Ed]2 [Ed]2 [Ed]2 [Gd]4 | %3
w: By~Daniel~Brink~Towner * * * *|||
 [EB]2 [Ec]2 [Ec]2 [EA]2 [EB]4 | [DE]2 [CA]2 [DA]2 [EA]2 [CA]4 | [EA]2 [FB]2 [FA]2 [FB]2 [Ec]4 | %6
w: |||
 [Ec]2 [Ae]2 [Ge]2 [_Ge]2 [Fd]4 | [=EB]2 [_Ec]3 [Ec] [DB]2 [CA]4 | A2 [Fd]2 [Fd]2 [Fd]2 [Fd]4 | %9
w: |||
 [FB]2 [Ec]2 [Ec]2 [Ec]2 [Ec]4 | [EA]2 [EB] [EB]3 [EB]2 [=DB]4 | [=DF]2 [_DB]4- [DB]4- [DB]3/2 z/ | %12
w: |||
 [EB]2 [Ec]2 [Ec]2 [=Ec]2 [FA]4 | [FA]2 [FB] [FA]3 [DF]2 [CE]4 | %14
w: ||
 [CE]2 [DF] [FA]3 [Fd]2 [Ec] [Ec]3 | [DB]2 [CA]4- [CA]4- [CA]3/2 z/ |] %16
w: ||
V:2
 E,2 [A,C]2 [A,C]2 [A,D]2 [A,C]4 | [C,A,]2 [D,A,]2 [D,F,]2 [D,A,]2 [A,,A,]4 | %2
 A,2 [E,G,]2 [F,A,]2 [G,B,]2 [E,B,]4 | [E,G,]2 [A,,A,]2 [A,,A,]2 [C,A,]2 [E,G,]4 | %4
 E,2 [A,,E,]2 [B,,E,]2 [C,E,]2 [A,,E,]4 | [C,A,]2 [D,A,]2 [D,A,]2 [D,A,]2 [A,,A,]4 | %6
 [A,,A,]2 [C,A,]2 [C,A,]2 [C,A,]2 [D,A,]4 | [D,A,]2 [E,A,]3 [E,A,] [E,G,]2 [A,,A,]4 | %8
 A,2 [D,A,]2 [F,A,]2 A,2 [D,A,]4 | [D,A,]2 [A,,A,]2 [C,A,]2 [E,A,]2 A,4 | %10
 [C,A,]2 [E,G,] [E,G,]3 [E,G,]2 [F,A,]4 | [F,A,]2 [E,G,]4- [E,G,]4- [E,G,]3/2 z/ | %12
 [E,G,]2 A,2 A,2 [G,B,]2 [F,C]4 | [F,C]2 [D,D] [D,D]3 [D,A,]2 [A,,A,]4 | %14
 [A,,A,]2 [D,A,] [D,D]3 [D,A,]2 [E,A,] [E,A,]3 | [E,G,]2 [A,,A,]4- [A,,A,]4- [A,,A,]3/2 z/ |] %16

